material/.icons/material/file-alert.svg

<svg xmlns="http://www.w3.org/2000/svg" viewBox="0 0 24 24"><path d="M14 2H6a2 2 0 00-2 2v16a2 2 0 002 2h12a2 2 0 002-2V8l-6-6m-4 16H8v-2h2v2m0-4H8V9h2v5m3-5V3.5L18.5 9H13z"/></svg>

<?xml version="1.0" encoding="UTF-8"?><!DOCTYPE svg PUBLIC "-//W3C//DTD SVG 1.1//EN" "http://www.w3.org/Graphics/SVG/1.1/DTD/svg11.dtd"><svg xmlns="http://www.w3.org/2000/svg" xmlns:xlink="http://www.w3.org/1999/xlink" version="1.1" id="mdi-file-alert" width="24" height="24" viewBox="0 0 24 24"><path d="M14,2H6A2,2 0 0,0 4,4V20A2,2 0 0,0 6,22H18A2,2 0 0,0 20,20V8L14,2M10,18H8V16H10V18M10,14H8V9H10V14M13,9V3.5L18.5,9H13Z" /></svg>
